images/power.svg

<svg viewBox="0 0 24 24" fill="none" xmlns="http://www.w3.org/2000/svg"><path fill-rule="evenodd" clip-rule="evenodd" d="M11 3h2v10h-2V3zm5.41 3.59l1.42-1.42A8.932 8.932 0 0121 12a9 9 0 01-18 0c0-2.74 1.23-5.18 3.17-6.83l1.41 1.41A6.995 6.995 0 0012 19c3.87 0 7-3.13 7-7a6.92 6.92 0 00-2.59-5.41z" fill="#333"/></svg>

<svg viewBox="0 0 24 24" fill="none" xmlns="http://www.w3.org/2000/svg">
<path id="icon/action/power_settings_new_24px" fill-rule="evenodd" clip-rule="evenodd" d="M11 3H13V13H11V3ZM16.41 6.59L17.83 5.17C19.77 6.82 21 9.26 21 12C21 16.97 16.97 21 12 21C7.03 21 3 16.97 3 12C3 9.26 4.23 6.82 6.17 5.17L7.58 6.58C6.01 7.86 5 9.81 5 12C5 15.87 8.13 19 12 19C15.87 19 19 15.87 19 12C19 9.81 17.99 7.86 16.41 6.59Z" fill="#333333"/>
</svg>
